svgs/solid/square-m.svg

<svg xmlns="http://www.w3.org/2000/svg" viewBox="0 0 448 512"><!-- Font Awesome Pro 6.0.0-alpha2 by @fontawesome - https://fontawesome.com License - https://fontawesome.com/license (Commercial License) --><path d="M384 32H64C28.654 32 0 60.654 0 96V416C0 451.346 28.654 480 64 480H384C419.348 480 448 451.346 448 416V96C448 60.654 419.348 32 384 32ZM352 360C352 373.25 341.25 384 328 384S304 373.25 304 360V226.219L243.453 310.047C234.422 322.547 213.578 322.547 204.547 310.047L144 226.219V360C144 373.25 133.25 384 120 384S96 373.25 96 360V152C96 141.594 102.719 132.359 112.609 129.172C122.469 125.922 133.359 129.484 139.453 137.953L224 255.016L308.547 137.953C314.641 129.484 325.437 125.922 335.391 129.172C345.281 132.359 352 141.594 352 152V360Z"/></svg>

<svg xmlns="http://www.w3.org/2000/svg" viewBox="0 0 448 512"><!--! Font Awesome Pro 6.0.0-alpha3 by @fontawesome - https://fontawesome.com License - https://fontawesome.com/license (Commercial License) --><path d="M384 32H64C28.65 32 0 60.65 0 96v320c0 35.35 28.65 64 64 64h320c35.35 0 64-28.65 64-64V96C448 60.65 419.3 32 384 32zM352 360c0 13.25-10.75 24-24 24s-24-10.75-24-24V226.2l-60.55 83.83c-9.031 12.5-29.88 12.5-38.91 0L144 226.2V360C144 373.3 133.3 384 120 384S96 373.3 96 360v-208c0-10.41 6.719-19.64 16.61-22.83c9.859-3.25 20.75 .3125 26.84 8.781L224 255l84.55-117.1c6.094-8.469 16.89-12.03 26.84-8.781C345.3 132.4 352 141.6 352 152V360z"/></svg>
